X: 1
T: Jim Shank's reel
T: the Front Porch Tune
S: Roaring Jelly handout 2020-1-28
R: reel
Z: 2020 John Chambers <jc:trillian.mit.edu>
M: C|
L: 1/8
K: A
cd |\
"A"e3f e2c2 | "D"defd "E7"B2cd | "A"e3f e2ce | "E"fefg "A"a2cd |
"A"e3f e2c2 | "D"defd "E7"B2cd | "A"cBAc "E7"BAGB | "D"A3B "A"A2 :|
|: c2 |\
"A"cBAc BAFE | "Bm"B3c B2AB | "A"cBAc "E"BAFE | "D"ABAF "A"E2AB |
"A"cBAc BAFE | "Bm"B3c B2AB | "A"cBAc "E"BAFE | "D"A3B "A"A2 :|
